resources/icons/svg/hidplugin.svg

<svg xmlns:svg="http://www.w3.org/2000/svg" xmlns="http://www.w3.org/2000/svg" xmlns:xlink="http://www.w3.org/1999/xlink" id="svg2913" height="48" width="48" version="1.1"><defs id="defs3"><linearGradient id="linearGradient2510"><stop id="stop2512" offset="0" style="stop-color:#ffffff;stop-opacity:1"/><stop id="stop2514" offset="1" style="stop-color:#ffffff;stop-opacity:0"/></linearGradient><linearGradient id="linearGradient5411"><stop id="stop5413" offset="0" style="stop-color:#ffffff;stop-opacity:1"/><stop id="stop5415" offset="1" style="stop-color:#ffffff;stop-opacity:0"/></linearGradient><linearGradient id="linearGradient5069"><stop id="stop5071" offset="0" style="stop-color:#000000;stop-opacity:1"/><stop id="stop5073" offset="1" style="stop-color:#000000;stop-opacity:0"/></linearGradient><linearGradient id="linearGradient5018"><stop id="stop5020" offset="0" style="stop-color:#aaaaaa;stop-opacity:1"/><stop id="stop5022" offset="1" style="stop-color:#cdcdcd;stop-opacity:1"/></linearGradient><linearGradient id="linearGradient4990"><stop id="stop4992" offset="0" style="stop-color:#ff8a2b;stop-opacity:1"/><stop id="stop4994" offset="1" style="stop-color:#833a00;stop-opacity:1"/></linearGradient><linearGradient id="linearGradient4254"><stop id="stop4256" offset="0" style="stop-color:#ffffff;stop-opacity:1"/><stop id="stop4258" offset="1" style="stop-color:#ffffff;stop-opacity:0"/></linearGradient><linearGradient id="linearGradient4244"><stop id="stop4246" offset="0" style="stop-color:#e4e4e4;stop-opacity:1"/><stop id="stop4248" offset="1" style="stop-color:#d3d3d3;stop-opacity:1"/></linearGradient><linearGradient id="linearGradient4228"><stop id="stop4230" offset="0" style="stop-color:#bbbbbb;stop-opacity:1"/><stop id="stop4232" offset="1" style="stop-color:#9f9f9f;stop-opacity:1"/></linearGradient><radialGradient xlink:href="#linearGradient5069" id="radialGradient1470" gradientUnits="userSpaceOnUse" gradientTransform="matrix(1,0,0,0.624277,0.154679,12.576701)" cx="10.36" cy="32.71" fx="10.36" fy="32.71" r="3.82"/><linearGradient xlink:href="#linearGradient5411" id="linearGradient1476" gradientUnits="userSpaceOnUse" x1="24.24" y1="31.71" x2="24.24" y2="28.36" gradientTransform="matrix(0.633635,0,0,0.633635,9.123852,4.17687)"/><linearGradient xlink:href="#linearGradient4990" id="linearGradient1482" gradientUnits="userSpaceOnUse" x1="23.6" y1="3.49" x2="26.03" y2="13.1"/><linearGradient xlink:href="#linearGradient4990" id="linearGradient1484" gradientUnits="userSpaceOnUse" x1="24.4" y1="11.51" x2="17.77" y2="-6.46"/><linearGradient xlink:href="#linearGradient2510" id="linearGradient1489" gradientUnits="userSpaceOnUse" x1="21.06" y1="2.44" x2="26.29" y2="29.56"/><linearGradient xlink:href="#linearGradient5018" id="linearGradient1496" gradientUnits="userSpaceOnUse" gradientTransform="translate(0,-0.625)" x1="26.31" y1="17.5" x2="23.06" y2="17.5"/><linearGradient xlink:href="#linearGradient5018" id="linearGradient1501" gradientUnits="userSpaceOnUse" gradientTransform="translate(0,-0.625)" x1="28.47" y1="28.13" x2="20" y2="26.38"/><linearGradient xlink:href="#linearGradient4254" id="linearGradient1507" gradientUnits="userSpaceOnUse" gradientTransform="translate(0,8.055463)" x1="12.38" y1="4.43" x2="44.1" y2="47.62"/><radialGradient xlink:href="#linearGradient4244" id="radialGradient1512" gradientUnits="userSpaceOnUse" gradientTransform="matrix(1.286242,0.781698,-0.710782,1.169552,-2.354348,3.178602)" cx="15.57" cy="2.96" fx="15.57" fy="2.96" r="20.94"/><linearGradient xlink:href="#linearGradient4228" id="linearGradient1516" gradientUnits="userSpaceOnUse" gradientTransform="translate(0,8.055463)" x1="7.6" y1="28.48" x2="36.18" y2="40.94"/><radialGradient xlink:href="#linearGradient4990" id="radialGradient1520" gradientUnits="userSpaceOnUse" gradientTransform="matrix(2.3082159,0,0,2.3082159,-28.875925,-6.0608053)" cx="22.69" cy="4.94" fx="22.69" fy="4.94" r="6.63"/></defs><metadata id="metadata4"/><path d="m9.29 22.02c-0.63 0-1.04 0.29-1.29 0.84 0 0-4.46 11.11-4.46 11.11 0 0-0.25 0.67-0.25 1.78 0 0 0 5.65 0 5.65 0 1.08 0.65 1.62 1.65 1.62l38.56 0c0.99 0 1.6-0.72 1.6-1.84l0-5.65c0 0 0.1-0.77-0.1-1.31l-4.71-11.2c-0.19-0.51-0.64-0.99-1.13-1l-29.87 0z" id="path4196" style="fill:none;stroke-linecap:round;stroke-linejoin:round;stroke-width:2;stroke:#535353"/><path d="m3.27 35.05 0.77-0.69 37.61 0.06 3.46 0.32 0 6.44c0 1.12-0.61 1.84-1.59 1.84l-38.58 0c-1 0-1.67-0.54-1.67-1.62l0-6.35z" id="path4170" fill="url(#linearGradient1516)"/><path d="m24.56 19.75c-2.62 0-4.71 1.05-4.87 2.38l-0.06 0c0 0-1.29 5.18-1.29 5.18-0.21 1.1 2.08 3.03 6.22 3.03 4.17 0 6.57-1.96 6.16-3.43 0 0-1.19-4.78-1.19-4.78l-0.06 0C29.31 20.8 27.19 19.75 24.56 19.75Z" id="path5030" style="fill:none;font-family:'Bitstream Vera Sans';stroke-width:2;stroke:#666"/><path d="m3.55 33.97c-0.72 1.46 0 2.39 1.03 2.39 0 0 39 0 39 0 1.12-0.02 1.85-1.01 1.43-2.14L40.3 23.01c-0.19-0.51-0.66-0.99-1.14-1l-29.86 0c-0.63 0-1.04 0.3-1.29 0.86 0 0-4.46 11.1-4.46 11.1z" id="path3093" fill="url(#radialGradient1512)"/><path id="path5067" d="m14.34 33a3.83 2.39 0 1 1-7.65 0 3.83 2.39 0 1 1 7.65 0z" style="fill:url(#radialGradient1470);font-family:'Bitstream Vera Sans'"/><path d="m44.8 33.68c0.06 1.25-0.42 2.32-1.33 2.35 0 0-38.11 0-38.11 0-1.29 0-1.87-0.33-2.09-0.87 0.09 0.94 0.83 1.65 2.09 1.65 0 0 38.11 0 38.11 0 1.08-0.03 1.76-1.42 1.36-3L44.8 33.68Z" id="path4201" fill="#fff"/><path id="path4252" d="m9.64 22.47c-0.6 0-0.99 0.28-1.23 0.81 0 0-4.42 10.59-4.42 10.59 0 0-0.24 0.65-0.24 1.72 0 0 0 5.29 0 5.29 0 1.35 0.45 1.63 1.6 1.63l37.68 0c1.33 0 1.54-0.32 1.54-1.84l0-5.29c0 0 0.1-0.74-0.09-1.27l-4.59-10.8c-0.18-0.49-0.56-0.83-1.02-0.84l-29.23 0z" style="fill:none;stroke-linecap:round;stroke-linejoin:round;stroke:url(#linearGradient1507)"/><path id="path4341" d="m36.03 28.29a11.46 5.87 0 0 1-22.93 0 11.46 5.87 0 1 1 22.93 0z" style="fill-opacity:0.48;fill:#fff;font-family:'Bitstream Vera Sans'"/><path d="m30.76 27.16a6.19 3.17 0 0 1-12.38 0 6.19 3.17 0 1 1 12.38 0z" id="path4343" style="fill:#c9c9c9;font-family:'Bitstream Vera Sans'"/><path d="m24.56 1.34c-3.66 0-6.62 2.97-6.62 6.63 0 2.61 1.56 4.79 3.75 5.87l0 8.47c0 0 0 0.04 0 0.07 0 0.81 1.28 1.46 2.87 1.46 1.59 0 2.88-0.65 2.88-1.46l0-0.07 0-8.43c2.21-1.08 3.75-3.29 3.75-5.91 0-3.66-2.97-6.63-6.63-6.63z" id="path4659" style="fill:none;font-family:'Bitstream Vera Sans';stroke-width:2;stroke:#666"/><path d="m29.53 22.13c0 0 1.19 4.78 1.19 4.78 0.41 1.47-1.99 3.43-6.16 3.43-4.14 0-6.43-1.93-6.22-3.03 0 0 1.29-5.18 1.29-5.18l9.9 0z" id="path5026" style="fill:url(#linearGradient1501);font-family:'Bitstream Vera Sans'"/><path id="path4345" d="m29.52 22.28a4.95 2.53 0 0 1-9.9 0 4.95 2.53 0 1 1 9.9 0z" style="fill:#e4e4e4;font-family:'Bitstream Vera Sans'"/><path xlink:href="#path4345" id="path5419" d="m24.69 19.8c-2.53 0-4.59 1.06-4.59 2.36 0 1.29 2.06 2.35 4.59 2.35 2.53 0 4.59-1.06 4.59-2.35 0-1.3-2.06-2.36-4.59-2.36z" style="fill:none;font-family:'Bitstream Vera Sans';stroke-width:0.68;stroke:url(#linearGradient1476)"/><path d="m24.56 6.28c-1.59 0-2.87 0.66-2.87 1.47 0 0.03 0.06 0.04 0.06 0.06l-0.06 0 0 13.88 0.06 0c0 0.02-0.06 0.03-0.06 0.06 0 0.81 1.28 1.47 2.87 1.47 1.59 0 2.88-0.66 2.88-1.47 0-0.03-0.06-0.04-0.06-0.06l0.06 0 0-13.88-0.06 0c0-0.02 0.06-0.03 0.06-0.06 0-0.81-1.29-1.47-2.88-1.47z" id="path4347" style="fill:url(#linearGradient1496);font-family:'Bitstream Vera Sans'"/><path id="path4641" d="m30.98 7.96a6.42 6.42 0 1 1-12.82 0 6.42 6.42 0 1 1 12.82 0z" style="fill:url(#radialGradient1520);font-family:'Bitstream Vera Sans'"/><g id="g5049" transform="matrix(1,0,0,0.84966,0.810662,5.224199)"><path id="path5039" d="m31.02 8.4a6.63 6.63 0 1 1-13.25 0 6.63 6.63 0 1 1 13.25 0z" transform="matrix(0.510331,0,0,0.354752,-2.87767,29.41695)" style="fill:url(#linearGradient1482);font-family:'Bitstream Vera Sans'"/><path transform="matrix(0.430193,0,0,0.299045,-0.922674,29.60375)" d="m31.02 8.4a6.63 6.63 0 1 1-13.25 0 6.63 6.63 0 1 1 13.25 0z" id="path5045" style="fill:url(#linearGradient1484);font-family:'Bitstream Vera Sans'"/></g><path d="m24.56 2.07c-3.28 0-5.94 2.69-5.94 5.97 0 2.32 1.66 4.27 3.59 5.25l0 7.12c-0.87 0.4-2.15 1.05-2.17 1.69 0 0-1.25 5.14-1.25 5.14-0.2 1.02 1.93 2.81 5.77 2.81 3.87 0 6.09-1.82 5.72-3.19L29.06 22.01C29.04 21.32 27.83 20.9 26.86 20.5l0-7.21c1.92-0.98 3.68-2.93 3.68-5.25 0-3.28-2.69-5.97-5.98-5.97z" id="path2204" style="fill:none;font-family:'Bitstream Vera Sans';opacity:0.53;stroke:url(#linearGradient1489)"/></svg>

<svg xmlns:svg="http://www.w3.org/2000/svg" xmlns="http://www.w3.org/2000/svg" xmlns:xlink="http://www.w3.org/1999/xlink" id="svg2913" height="48" width="48"><defs id="defs3"><linearGradient id="linearGradient2510"><stop id="stop2512" offset="0" style="stop-color:#ffffff;stop-opacity:1"/><stop id="stop2514" offset="1" style="stop-color:#ffffff;stop-opacity:0"/></linearGradient><linearGradient id="linearGradient5411"><stop id="stop5413" offset="0" style="stop-color:#ffffff;stop-opacity:1"/><stop id="stop5415" offset="1" style="stop-color:#ffffff;stop-opacity:0"/></linearGradient><linearGradient id="linearGradient5069"><stop id="stop5071" offset="0" style="stop-color:#000000;stop-opacity:1"/><stop id="stop5073" offset="1" style="stop-color:#000000;stop-opacity:0"/></linearGradient><linearGradient id="linearGradient5018"><stop id="stop5020" offset="0" style="stop-color:#aaaaaa;stop-opacity:1"/><stop id="stop5022" offset="1" style="stop-color:#cdcdcd;stop-opacity:1"/></linearGradient><linearGradient id="linearGradient4990"><stop id="stop4992" offset="0" style="stop-color:#ff8a2b;stop-opacity:1"/><stop id="stop4994" offset="1" style="stop-color:#833a00;stop-opacity:1"/></linearGradient><linearGradient id="linearGradient4264"><stop id="stop4266" offset="0" style="stop-color:#000000;stop-opacity:1"/><stop id="stop4268" offset="1" style="stop-color:#000000;stop-opacity:0"/></linearGradient><linearGradient id="linearGradient4254"><stop id="stop4256" offset="0" style="stop-color:#ffffff;stop-opacity:1"/><stop id="stop4258" offset="1" style="stop-color:#ffffff;stop-opacity:0"/></linearGradient><linearGradient id="linearGradient4244"><stop id="stop4246" offset="0" style="stop-color:#e4e4e4;stop-opacity:1"/><stop id="stop4248" offset="1" style="stop-color:#d3d3d3;stop-opacity:1"/></linearGradient><linearGradient id="linearGradient4228"><stop id="stop4230" offset="0" style="stop-color:#bbbbbb;stop-opacity:1"/><stop id="stop4232" offset="1" style="stop-color:#9f9f9f;stop-opacity:1"/></linearGradient><radialGradient xlink:href="#linearGradient4264" id="radialGradient1464" gradientUnits="userSpaceOnUse" gradientTransform="matrix(1.000000,0.000000,0.000000,0.651032,-8.174347e-16,9.455693)" cx="23.2" cy="27.1" fx="23.2" fy="27.1" r="23.56"/><radialGradient xlink:href="#linearGradient5069" id="radialGradient1470" gradientUnits="userSpaceOnUse" gradientTransform="matrix(1.000000,0.000000,0.000000,0.624277,0.000000,12.28944)" cx="10.36" cy="32.71" fx="10.36" fy="32.71" r="3.82"/><linearGradient xlink:href="#linearGradient5411" id="linearGradient1476" gradientUnits="userSpaceOnUse" x1="24.24" y1="31.71" x2="24.24" y2="28.36"/><linearGradient xlink:href="#linearGradient4990" id="linearGradient1482" gradientUnits="userSpaceOnUse" x1="23.6" y1="3.49" x2="26.03" y2="13.1"/><linearGradient xlink:href="#linearGradient4990" id="linearGradient1484" gradientUnits="userSpaceOnUse" x1="24.4" y1="11.51" x2="17.77" y2="-6.46"/><linearGradient xlink:href="#linearGradient2510" id="linearGradient1489" gradientUnits="userSpaceOnUse" x1="21.06" y1="2.44" x2="26.29" y2="29.56"/><linearGradient xlink:href="#linearGradient5018" id="linearGradient1496" gradientUnits="userSpaceOnUse" gradientTransform="translate(0.000000,-0.625000)" x1="26.31" y1="17.5" x2="23.06" y2="17.5"/><linearGradient xlink:href="#linearGradient5018" id="linearGradient1501" gradientUnits="userSpaceOnUse" gradientTransform="translate(0.000000,-0.625000)" x1="28.47" y1="28.13" x2="20" y2="26.38"/><linearGradient xlink:href="#linearGradient4254" id="linearGradient1507" gradientUnits="userSpaceOnUse" gradientTransform="translate(0.000000,8.055463)" x1="12.38" y1="4.43" x2="44.1" y2="47.62"/><radialGradient xlink:href="#linearGradient4244" id="radialGradient1512" gradientUnits="userSpaceOnUse" gradientTransform="matrix(1.286242,0.781698,-0.710782,1.169552,-2.354348,3.178602)" cx="15.57" cy="2.96" fx="15.57" fy="2.96" r="20.94"/><linearGradient xlink:href="#linearGradient4228" id="linearGradient1516" gradientUnits="userSpaceOnUse" gradientTransform="translate(0.000000,8.055463)" x1="7.6" y1="28.48" x2="36.18" y2="40.94"/><radialGradient xlink:href="#linearGradient4990" id="radialGradient1520" gradientUnits="userSpaceOnUse" gradientTransform="matrix(2.385563,1.107767e-15,-1.107767e-15,2.385563,-30.84370,-6.089588)" cx="22.69" cy="4.94" fx="22.69" fy="4.94" r="6.63"/></defs><metadata id="metadata4"/><g id="layer2"><path transform="matrix(1.052533,0.000000,0.000000,0.363113,-0.511757,30.92528)" d="M46.76 27.1A23.56 15.34 0 1 1-0.35 27.1 23.56 15.34 0 1 1 46.76 27.1z" id="path4262" style="color:#000000;display:inline;fill-opacity:1;fill-rule:evenodd;fill:url(#radialGradient1464);opacity:0.56;overflow:visible"/><path id="path4196" d="M9.29 22.02C8.66 22.02 8.25 22.31 8 22.86 8 22.86 3.54 33.97 3.54 33.97 3.54 33.97 3.29 34.64 3.29 35.75 3.29 35.75 3.29 41.4 3.29 41.4 3.29 42.48 3.94 43.02 4.94 43.02L43.5 43.02C44.49 43.02 45.1 42.3 45.1 41.18L45.1 35.53C45.1 35.53 45.2 34.76 45 34.22L40.29 23.02C40.1 22.51 39.65 22.03 39.16 22.02L9.29 22.02z" style="fill:none;stroke-linecap:round;stroke-linejoin:round;stroke-miterlimit:4;stroke-opacity:1;stroke-width:2;stroke:#535353"/><path id="path4170" d="M3.27 35.05L4.04 34.36 41.65 34.42 45.11 34.74 45.11 41.18C45.11 42.3 44.5 43.02 43.52 43.02L4.94 43.02C3.94 43.02 3.27 42.48 3.27 41.4L3.27 35.05z" style="fill-opacity:1;fill-rule:evenodd;fill:url(#linearGradient1516)"/><path id="path5030" d="M24.56 19.75C21.94 19.75 19.85 20.8 19.69 22.13L19.63 22.13C19.63 22.13 18.34 27.31 18.34 27.31 18.13 28.41 20.42 30.34 24.56 30.34 28.73 30.34 31.13 28.38 30.72 26.91 30.72 26.91 29.53 22.13 29.53 22.13L29.47 22.13C29.31 20.8 27.19 19.75 24.56 19.75z" style="color:#000000;display:inline;fill:none;font-family:Bitstream Vera Sans;opacity:1;overflow:visible;stroke-dashoffset:0;stroke-miterlimit:4;stroke-opacity:1;stroke-width:2;stroke:#666"/><path id="path3093" d="M3.55 33.97C2.83 35.43 3.55 36.36 4.58 36.36 4.58 36.36 43.58 36.36 43.58 36.36 44.7 36.34 45.43 35.35 45.01 34.22L40.3 23.01C40.11 22.5 39.64 22.02 39.16 22.01L9.3 22.01C8.67 22.01 8.26 22.31 8.01 22.87 8.01 22.87 3.55 33.97 3.55 33.97z" style="fill-opacity:1;fill-rule:evenodd;fill:url(#radialGradient1512)"/><path transform="translate(0.154679,0.287261)" d="M14.19 32.71A3.82 2.39 0 1 1 6.54 32.71 3.82 2.39 0 1 1 14.19 32.71z" id="path5067" style="color:#000000;display:inline;fill-opacity:1;fill-rule:evenodd;fill:url(#radialGradient1470);font-family:Bitstream Vera Sans;opacity:1;overflow:visible"/><path id="path4201" d="M44.8 33.68C44.86 34.93 44.38 36 43.47 36.03 43.47 36.03 5.36 36.03 5.36 36.03 4.07 36.03 3.49 35.7 3.27 35.16 3.36 36.1 4.1 36.81 5.36 36.81 5.36 36.81 43.47 36.81 43.47 36.81 44.55 36.78 45.23 35.39 44.83 33.81L44.8 33.68z" style="fill-opacity:1;fill-rule:evenodd;fill:#fff"/><path d="M9.64 22.47C9.04 22.47 8.65 22.75 8.41 23.28 8.41 23.28 3.99 33.87 3.99 33.87 3.99 33.87 3.75 34.52 3.75 35.59 3.75 35.59 3.75 40.88 3.75 40.88 3.75 42.23 4.2 42.51 5.35 42.51L43.03 42.51C44.36 42.51 44.57 42.19 44.57 40.67L44.57 35.38C44.57 35.38 44.67 34.64 44.48 34.11L39.89 23.31C39.71 22.82 39.33 22.48 38.87 22.47L9.64 22.47z" id="path4252" style="fill:none;stroke-linecap:round;stroke-linejoin:round;stroke-miterlimit:4;stroke-opacity:1;stroke-width:1;stroke:url(#linearGradient1507)"/><path transform="matrix(1.581301,0.000000,0.000000,1.581301,-14.28370,-16.59070)" d="M31.82 28.38A7.25 3.71 0 1 1 17.32 28.38 7.25 3.71 0 1 1 31.82 28.38z" id="path4341" style="color:#000000;display:inline;fill-opacity:0.48;fill-rule:evenodd;fill:#fff;font-family:Bitstream Vera Sans;opacity:1;overflow:visible"/><path id="path4343" d="M31.82 28.38A7.25 3.71 0 1 1 17.32 28.38 7.25 3.71 0 1 1 31.82 28.38z" transform="matrix(0.853659,0.000000,0.000000,0.853659,3.595897,2.933178)" style="color:#000000;display:inline;fill-opacity:1;fill-rule:evenodd;fill:#c9c9c9;font-family:Bitstream Vera Sans;opacity:1;overflow:visible"/><path id="path4659" d="M24.56 1.34C20.9 1.34 17.94 4.31 17.94 7.97 17.94 10.58 19.5 12.76 21.69 13.84L21.69 22.31C21.69 22.31 21.69 22.35 21.69 22.38 21.69 23.19 22.97 23.84 24.56 23.84 26.15 23.84 27.44 23.19 27.44 22.38L27.44 22.31 27.44 13.88C29.65 12.8 31.19 10.59 31.19 7.97 31.19 4.31 28.22 1.34 24.56 1.34z" style="color:#000000;display:inline;fill:none;font-family:Bitstream Vera Sans;opacity:1;overflow:visible;stroke-dashoffset:0;stroke-miterlimit:4;stroke-opacity:1;stroke-width:2;stroke:#666"/><path id="path5026" d="M29.53 22.13C29.53 22.13 30.72 26.91 30.72 26.91 31.13 28.38 28.73 30.34 24.56 30.34 20.42 30.34 18.13 28.41 18.34 27.31 18.34 27.31 19.63 22.13 19.63 22.13L29.53 22.13z" style="color:#000000;display:inline;fill-opacity:1;fill-rule:evenodd;fill:url(#linearGradient1501);font-family:Bitstream Vera Sans;opacity:1;overflow:visible"/><path transform="matrix(0.682927,0.000000,0.000000,0.682927,7.791110,2.903166)" d="M31.82 28.38A7.25 3.71 0 1 1 17.32 28.38 7.25 3.71 0 1 1 31.82 28.38z" id="path4345" style="color:#000000;display:inline;fill-opacity:1;fill-rule:evenodd;fill:#e4e4e4;font-family:Bitstream Vera Sans;opacity:1;overflow:visible"/><path transform="matrix(0.633635,0.000000,0.000000,0.633635,9.123852,4.176870)" d="M24.56 24.66C20.56 24.66 17.31 26.33 17.31 28.38 17.31 30.42 20.56 32.09 24.56 32.09 28.56 32.09 31.81 30.42 31.81 28.38 31.81 26.33 28.56 24.66 24.56 24.66z" id="path5419" xlink:href="#path4345" style="color:#000000;display:inline;fill:none;font-family:Bitstream Vera Sans;opacity:1;overflow:visible;stroke-dashoffset:0;stroke-miterlimit:4;stroke-opacity:1;stroke-width:1.08;stroke:url(#linearGradient1476)"/><path id="path4347" d="M24.56 6.28C22.97 6.28 21.69 6.94 21.69 7.75 21.69 7.78 21.75 7.79 21.75 7.81L21.69 7.81 21.69 21.69 21.75 21.69C21.75 21.71 21.69 21.72 21.69 21.75 21.69 22.56 22.97 23.22 24.56 23.22 26.15 23.22 27.44 22.56 27.44 21.75 27.44 21.72 27.38 21.71 27.38 21.69L27.44 21.69 27.44 7.81 27.38 7.81C27.38 7.79 27.44 7.78 27.44 7.75 27.44 6.94 26.15 6.28 24.56 6.28z" style="color:#000000;display:inline;fill-opacity:1;fill-rule:evenodd;fill:url(#linearGradient1496);font-family:Bitstream Vera Sans;opacity:1;overflow:visible"/><path transform="matrix(0.967577,0.000000,0.000000,0.967577,0.967730,-0.168660)" d="M31.02 8.4A6.63 6.63 0 1 1 17.77 8.4 6.63 6.63 0 1 1 31.02 8.4z" id="path4641" style="color:#000000;display:inline;fill-opacity:1;fill-rule:evenodd;fill:url(#radialGradient1520);font-family:Bitstream Vera Sans;opacity:1;overflow:visible"/><g transform="matrix(1.000000,0.000000,0.000000,0.849660,0.810662,5.224199)" id="g5049"><path transform="matrix(0.510331,0.000000,0.000000,0.354752,-2.877670,29.41695)" d="M31.02 8.4A6.63 6.63 0 1 1 17.77 8.4 6.63 6.63 0 1 1 31.02 8.4z" id="path5039" style="color:#000000;display:inline;fill-opacity:1;fill-rule:evenodd;fill:url(#linearGradient1482);font-family:Bitstream Vera Sans;opacity:1;overflow:visible"/><path id="path5045" d="M31.02 8.4A6.63 6.63 0 1 1 17.77 8.4 6.63 6.63 0 1 1 31.02 8.4z" transform="matrix(0.430193,0.000000,0.000000,0.299045,-0.922674,29.60375)" style="color:#000000;display:inline;fill-opacity:1;fill-rule:evenodd;fill:url(#linearGradient1484);font-family:Bitstream Vera Sans;opacity:1;overflow:visible"/></g><path id="path2204" d="M24.56 2.07C21.28 2.07 18.62 4.76 18.62 8.04 18.62 10.36 20.28 12.31 22.21 13.29L22.21 20.41C21.34 20.81 20.06 21.46 20.04 22.1 20.04 22.1 18.79 27.24 18.79 27.24 18.59 28.26 20.72 30.05 24.56 30.05 28.43 30.05 30.65 28.23 30.28 26.86L29.06 22.01C29.04 21.32 27.83 20.9 26.86 20.5L26.86 13.29C28.78 12.31 30.54 10.36 30.54 8.04 30.54 4.76 27.85 2.07 24.56 2.07z" style="color:#000000;display:inline;fill:none;font-family:Bitstream Vera Sans;opacity:0.53;overflow:visible;stroke-dashoffset:0;stroke-miterlimit:4;stroke-opacity:1;stroke-width:1;stroke:url(#linearGradient1489)"/></g></svg>
